assets/Feather/Flat/feather_flat.svg

<svg width="32" height="32" viewBox="0 0 32 32" fill="none" xmlns="http://www.w3.org/2000/svg">
<path d="M29.3741 2H25.2041C23.092 2 21.0085 2.29856 19.0105 2.87417L17.0194 6.0434L14.013 4.99983C12.8636 5.66372 11.7691 6.4323 10.7441 7.3C6.48411 10.91 4.02411 16.22 4.02411 21.81V25.06C4.02411 25.06 4.19411 24.76 4.51411 24.25C4.42411 24.63 4.38411 24.84 4.38411 24.84V25.06H8.30411C10.3841 25.06 12.3841 24.59 14.1941 23.72C14.4041 23.62 14.4041 23.32 14.1941 23.22L12.0241 22.21C11.8941 22.17 11.9341 22 12.0641 22H16.5941C16.8041 22 17.0041 21.92 17.1641 21.79C18.4941 20.65 19.6141 19.25 20.4341 17.64C20.7341 17.04 21.3041 15.97 21.6141 15.39C21.7441 15.15 21.7341 14.86 21.5941 14.62L20.2341 12.38C20.1341 12.21 20.2541 12 20.4441 12L21.9766 11.0062L24.0208 9.00807L26.7811 7.00561C27.7482 5.66095 28.7661 4.37082 29.8241 3.19C29.9541 3.05 30.0241 2.86 30.0241 2.67C30.0341 2.3 29.7341 2 29.3741 2Z" fill="#F3AD61"/>
<path d="M14 12H23.1141C23.3741 12 23.6241 11.86 23.7541 11.64C24.6941 10.07 25.7141 8.5 26.7941 7H19.0041V2.88C17.262 3.38195 15.5781 4.09699 14 5.0156V12Z" fill="#A56953"/>
<path d="M25.2841 4.14004C25.1641 3.90004 24.8741 3.80004 24.6341 3.91004C20.0341 5.98004 15.8941 8.85004 12.2941 12.44C8.47409 16.26 5.47409 20.71 3.37409 25.66C2.86409 26.87 2.41409 28.09 2.02409 29.33C1.93409 29.63 2.10409 29.94 2.40409 29.99C2.66409 30.04 2.90409 29.88 2.97409 29.64C3.35409 28.43 3.79409 27.23 4.29409 26.05C6.33409 21.22 9.26409 16.87 12.9941 13.15C16.5041 9.64004 20.5441 6.85004 25.0341 4.83004C25.3041 4.71004 25.4141 4.41004 25.2841 4.14004C25.2841 4.15004 25.2841 4.15004 25.2841 4.14004Z" fill="#D3883E"/>
</svg>

<svg xmlns="http://www.w3.org/2000/svg" width="32" height="32" fill="none"><path fill="#F3AD61" d="M29.374 2h-4.17c-2.112 0-4.195.299-6.194.874l-1.99 3.17L14.012 5a22.395 22.395 0 0 0-3.269 2.3 19.025 19.025 0 0 0-6.72 14.51v3.25s.17-.3.49-.81c-.09.38-.13.59-.13.59v.22h3.92c2.08 0 4.08-.47 5.89-1.34.21-.1.21-.4 0-.5l-2.17-1.01c-.13-.04-.09-.21.04-.21h4.53c.21 0 .41-.08.57-.21 1.33-1.14 2.45-2.54 3.27-4.15.3-.6.87-1.67 1.18-2.25.13-.24.12-.53-.02-.77l-1.36-2.24a.25.25 0 0 1 .21-.38l1.533-.994 2.044-1.998 2.76-2.002a45.861 45.861 0 0 1 3.043-3.816c.13-.14.2-.33.2-.52a.653.653 0 0 0-.65-.67Z"/><path fill="#A56953" d="M14 12h9.114c.26 0 .51-.14.64-.36.94-1.57 1.96-3.14 3.04-4.64h-7.79V2.88A22.129 22.129 0 0 0 14 5.016V12Z"/><path fill="#D3883E" d="M25.284 4.14a.498.498 0 0 0-.65-.23c-4.6 2.07-8.74 4.94-12.34 8.53a41.584 41.584 0 0 0-8.92 13.22 41.47 41.47 0 0 0-1.35 3.67c-.09.3.08.61.38.66.26.05.5-.11.57-.35.38-1.21.82-2.41 1.32-3.59 2.04-4.83 4.97-9.18 8.7-12.9 3.51-3.51 7.55-6.3 12.04-8.32a.5.5 0 0 0 .25-.69c0 .01 0 .01 0 0Z"/></svg>
